src/svgs/add-row.svg

<svg xmlns="http://www.w3.org/2000/svg" viewBox="0 0 24 24" width="512" height="512" aria-labelledby="adadd-row-desc adadd-row-title"><title id="adadd-row-title">Add Row Icon</title><desc id="adadd-row-desc">A picture showing a rectangle with a plus sign.</desc><path d="M22 7H2a2 2 0 00-2 2v6a2 2 0 002 2h20a2 2 0 002-2V9a2 2 0 00-2-2zM9 13H7v2H5v-2H3v-2h2V9h2v2h2z"/></svg>

<svg xmlns="http://www.w3.org/2000/svg" viewBox="0 0 24 24"><path d="M22,7H2A2,2,0,0,0,0,9v6a2,2,0,0,0,2,2H22a2,2,0,0,0,2-2V9A2,2,0,0,0,22,7ZM9,13H7v2H5V13H3V11H5V9H7v2H9Z"/></svg>
